X:51
T:O'Keefe's slide
T:Dan O'Keefe's slide
R:slide
H:Also played in Edor
Z:id:hn-slide-51
M:6/8
K:Ador
A2e e2d|BAB dBG|A2e e2d|B2G GAB|A2e e2d|BAB d3|BAB d2e|B2A A3:|
|:e2a a2b|a2g e2d|e2a a2b|a2g e2f|g2g g2e|dBA G2A|BAB d2e|B2A A3:|
<end>
<start>
